svg/100/sharp/roller_skating-fill.svg

<svg xmlns="http://www.w3.org/2000/svg" width="48" height="48" viewBox="0 -960 960 960"><path d="M186-349v-545h284v101H366v25h104v29.286q0 6.321.5 12.976.5 6.655 2.5 12.738H366v25h115.96q12.04 24 32.54 40.4T561-623l203 56v218H186Zm10.941 283Q159-66 132.5-92.559t-26.5-64.5Q106-195 132.559-221.5t64.5-26.5Q235-248 261.5-221.441t26.5 64.5Q288-119 261.441-92.5t-64.5 26.5Zm566 0Q725-66 698.5-92.559t-26.5-64.5Q672-195 698.559-221.5t64.5-26.5Q801-248 827.5-221.441t26.5 64.5Q854-119 827.441-92.5t-64.5 26.5Zm-283 0Q442-66 415.5-92.559t-26.5-64.5Q389-195 415.559-221.5t64.5-26.5Q518-248 544.5-221.441t26.5 64.5Q571-119 544.441-92.5t-64.5 26.5Z"/></svg>

<svg xmlns="http://www.w3.org/2000/svg" width="48" height="48" viewBox="0 -960 960 960"><path d="M186-349v-545h284v101H366v25h104v29.29q0 6.32.5 12.97.5 6.66 2.5 12.74H366v25h115.96q12.04 24 32.54 40.4T561-623l203 56v218H186Zm10.94 283Q159-66 132.5-92.56t-26.5-64.5q0-37.94 26.56-64.44t64.5-26.5q37.94 0 64.44 26.56t26.5 64.5q0 37.94-26.56 64.44T196.94-66Zm566 0Q725-66 698.5-92.56t-26.5-64.5q0-37.94 26.56-64.44t64.5-26.5q37.94 0 64.44 26.56t26.5 64.5q0 37.94-26.56 64.44T762.94-66Zm-283 0Q442-66 415.5-92.56t-26.5-64.5q0-37.94 26.56-64.44t64.5-26.5q37.94 0 64.44 26.56t26.5 64.5q0 37.94-26.56 64.44T479.94-66Z"/></svg>
